picto/people-with-limited-mobility-pregnant-framed.svg

<svg class="color-immutable" width="30" height="30" viewBox="0 0 30 30" fill="none" xmlns="http://www.w3.org/2000/svg"><path d="M29.9998 0H0V29.9998H29.9998V0Z" fill="#2D327D"/><path d="M25.4999 2.99998C26.3249 2.99998 26.9999 3.67498 26.9999 4.49998V25.4999C26.9999 26.3249 26.3249 26.9999 25.4999 26.9999H4.49998C3.67498 26.9999 2.99998 26.3249 2.99998 25.4999V4.49998C2.99998 3.67498 3.67498 2.99998 4.49998 2.99998H25.4999ZM25.4999 2.62499H4.49998C3.46611 2.62499 2.62499 3.46611 2.62499 4.49998V25.4999C2.62499 26.5337 3.46611 27.3749 4.49998 27.3749H25.4999C26.5337 27.3749 27.3749 26.5337 27.3749 25.4999V4.49998C27.3749 3.46611 26.5337 2.62499 25.4999 2.62499Z" fill="white"/><path d="M18.699 9.30362C18.699 10.1312 18.0267 10.8023 17.1975 10.8023C16.37 10.8023 15.6989 10.1311 15.6989 9.30362C15.6989 8.47435 16.37 7.80221 17.1975 7.80221C18.0267 7.80221 18.699 8.47435 18.699 9.30362Z" fill="white"/><path d="M22.131 11.2601H15.9493C15.5175 11.2342 15.0863 11.4413 14.8441 11.8364L13.6927 13.7083C13.4919 14.036 13.2799 14.3852 13.0592 14.7472L12.6269 15.4532C11.4815 17.3317 12.0848 18.8686 13.9718 18.8686C14.098 18.8686 17.4019 18.8686 17.4019 18.8686L17.9733 21.2891H17.9693C17.9733 21.3018 17.9757 21.3147 17.979 21.3267C17.9836 21.3401 17.9868 21.3528 17.9902 21.3649L18.4893 23.4743C18.6063 23.7989 18.9276 24.0111 19.2784 23.979C19.7004 23.9408 20.0129 23.5663 19.9746 23.1435C19.9728 23.1301 19.9698 23.115 19.9674 23.1012L18.7555 18.0107C18.6583 17.656 18.29 17.3793 17.9241 17.3786H17.0869H17.0845H14.986L17.9675 12.4669H22.131C22.466 12.4669 22.7353 12.1976 22.7353 11.8633C22.7353 11.5304 22.466 11.2601 22.131 11.2601Z" fill="white"/><path d="M22.5248 13.0714H21.7189V23.9609H22.5248V13.0714Z" fill="white"/><path d="M16.1027 19.5874H11.7985V19.5904H10.9299C10.7817 19.5904 10.6267 19.4723 10.5885 19.3276L8.09151 9.95725C8.08648 9.9388 8.07981 9.9181 8.07081 9.8956L8.01734 9.6916C7.96244 9.48805 7.75214 9.3664 7.54934 9.42033C7.34489 9.47493 7.22264 9.6853 7.27769 9.88938L9.45073 18.0505C9.4532 18.0502 9.4532 18.0502 9.4532 18.0502L10.0002 20.0944C10.0383 20.2384 10.1929 20.3562 10.3408 20.3562H15.8358C15.8484 20.3562 15.8654 20.3545 15.8794 20.3535H16.1027C16.3149 20.3535 16.4855 20.1825 16.4855 19.9711C16.4855 19.7586 16.3149 19.5874 16.1027 19.5874Z" fill="white"/></svg>

<svg class="color-immutable" width="30" height="30" viewBox="0 0 30 30" fill="none" xmlns="http://www.w3.org/2000/svg"><path d="M30 0H0v30h30V0Z" fill="#2D327D"/><path d="M25.5 3c.825 0 1.5.675 1.5 1.5v21c0 .825-.675 1.5-1.5 1.5h-21c-.825 0-1.5-.675-1.5-1.5v-21C3 3.675 3.675 3 4.5 3h21Zm0-.375h-21A1.877 1.877 0 0 0 2.625 4.5v21c0 1.034.841 1.875 1.875 1.875h21a1.877 1.877 0 0 0 1.875-1.875v-21A1.877 1.877 0 0 0 25.5 2.625Z" fill="#fff"/><path d="M18.699 9.304a1.5 1.5 0 1 1-3-.003 1.5 1.5 0 0 1 3 .003ZM22.131 11.26h-6.182a1.21 1.21 0 0 0-1.105.576l-1.151 1.872-.634 1.04-.432.705c-1.146 1.879-.542 3.416 1.345 3.416h3.43l.571 2.42h-.004l.01.038c.005.013.008.026.011.038l.5 2.11a.766.766 0 0 0 1.485-.332l-.008-.042-1.211-5.09a.901.901 0 0 0-.832-.632H14.986l2.982-4.912h4.163a.603.603 0 1 0 0-1.207Z" fill="#fff"/><path d="M22.525 13.071h-.806v10.89h.806V13.07ZM16.103 19.587h-4.305v.003h-.868a.374.374 0 0 1-.341-.262l-2.497-9.37a.568.568 0 0 0-.021-.062l-.054-.204a.383.383 0 0 0-.74.198l2.174 8.16h.002L10 20.094a.374.374 0 0 0 .34.262h5.496l.043-.003h.224a.382.382 0 1 0 0-.766Z" fill="#fff"/></svg>
